assets/features/channel/southeast-asia1/KBank.svg

<svg width="80" height="80" viewBox="0 0 80 80" fill="none" xmlns="http://www.w3.org/2000/svg">
<rect x="0.5" y="0.5" width="79" height="79" rx="7.5" fill="white"/>
<rect x="0.5" y="0.5" width="79" height="79" rx="7.5" stroke="#EEEEEE"/>
<path d="M62.2945 40.1456C62.2942 44.5228 60.9956 48.8016 58.563 52.441C56.1304 56.0803 52.673 58.9168 48.6279 60.5917C44.5829 62.2666 40.1319 62.7046 35.8379 61.8505C31.5438 60.9964 27.5995 58.8884 24.5038 55.7931C21.408 52.6979 19.2998 48.7544 18.4458 44.4612C17.5917 40.1681 18.0302 35.7182 19.7057 31.6742C21.3813 27.6302 24.2186 24.1738 27.859 21.742C31.4994 19.3102 35.7793 18.0122 40.1575 18.0122C46.0287 18.0126 51.6594 20.3447 55.8108 24.4955C59.9623 28.6462 62.2945 34.2757 62.2945 40.1456Z" fill="white"/>
<path d="M51.3147 51.6023C50.1857 50.9314 48.9018 50.5651 47.5887 50.5391C46.2903 50.6048 45.0236 50.9637 43.8837 51.5888C42.656 52.2582 41.2897 52.6335 39.8922 52.6851C38.6218 52.6283 37.3818 52.2777 36.2697 51.6608C35.037 50.987 33.6642 50.6096 32.2602 50.5586C30.9635 50.6212 29.6967 50.9699 28.5507 51.5798C27.3147 52.2395 25.9445 52.6087 24.5442 52.6596H24.2922C24.4572 52.8635 24.6237 53.0645 24.7962 53.2594C26.1941 53.169 27.5575 52.7864 28.7982 52.1362C29.8655 51.5587 31.0483 51.2267 32.2602 51.1644C33.575 51.2169 34.8593 51.5764 36.0102 52.2142C37.2023 52.8663 38.5286 53.2353 39.8862 53.2924C41.3715 53.2428 42.8251 52.8496 44.1327 52.1437C45.1927 51.5564 46.3725 51.2179 47.5827 51.1539C48.7998 51.1815 49.9887 51.5252 51.0327 52.1512C52.2845 52.8896 53.7088 53.2853 55.1622 53.2984C55.3392 53.096 55.5147 52.886 55.6857 52.6746C55.5192 52.6866 55.3602 52.6941 55.1892 52.6941C53.8225 52.6805 52.4832 52.3082 51.3057 51.6143" fill="#887369"/>
<path d="M47.5885 51.6855C46.2904 51.7508 45.0241 52.1097 43.885 52.7353C42.6566 53.4027 41.2906 53.7773 39.8935 53.83C38.6229 53.7735 37.3826 53.4239 36.2695 52.8088C35.0376 52.1322 33.6645 51.7532 32.26 51.702C30.9628 51.7652 29.6958 52.1155 28.5505 52.7278C27.5172 53.2581 26.4013 53.609 25.2505 53.7656C25.423 53.9485 25.597 54.133 25.7755 54.3069C26.8222 54.102 27.8364 53.7565 28.7905 53.2797C29.8576 52.7018 31.0405 52.3697 32.2525 52.3079C33.5675 52.3593 34.852 52.7189 36.0025 53.3577C37.1953 54.0102 38.5229 54.3782 39.8815 54.4329C41.3659 54.3842 42.8187 53.9909 44.125 53.2842C45.1855 52.6983 46.3651 52.3604 47.575 52.2959C48.7925 52.322 49.9819 52.6663 51.025 53.2947C51.9863 53.8426 53.0404 54.2087 54.1345 54.3744C54.3175 54.1915 54.502 54.0055 54.676 53.8181C53.4852 53.7178 52.3315 53.3546 51.298 52.7548C50.1684 52.0854 48.8848 51.7196 47.572 51.693" fill="#887369"/>
<path d="M47.5886 52.8301C46.2914 52.8935 45.0253 53.2492 43.8851 53.8708C42.6572 54.5397 41.2909 54.9149 39.8936 54.9671C38.6224 54.9115 37.3817 54.5608 36.2696 53.9428C35.0369 53.2686 33.6642 52.8903 32.2601 52.8376C30.9629 52.9007 29.6959 53.251 28.5506 53.8633C27.8082 54.2254 27.0332 54.5166 26.2361 54.7331C26.4086 54.8981 26.5886 55.0556 26.7686 55.219C27.4627 54.9971 28.1412 54.7291 28.7996 54.4167C29.8667 53.8388 31.0495 53.5068 32.2616 53.4449C33.5766 53.4963 34.8611 53.8559 36.0116 54.4947C37.2037 55.1497 38.5315 55.5193 39.8906 55.5744C41.3752 55.5253 42.828 55.1315 44.1341 54.4242C45.1946 53.8383 46.3741 53.5004 47.5841 53.4359C48.8014 53.463 49.9906 53.8073 51.0341 54.4347C51.6993 54.7951 52.3988 55.0885 53.1221 55.3105L53.6741 54.8186C52.8468 54.6187 52.0506 54.3075 51.3071 53.8933C50.1779 53.223 48.8941 52.8571 47.5811 52.8316" fill="#887369"/>
<path d="M47.5899 53.9771C46.2917 54.0413 45.0252 54.4003 43.8864 55.0268C42.6577 55.6931 41.2917 56.0668 39.8949 56.1186C38.6242 56.0629 37.3836 55.7134 36.2709 55.0973C35.0387 54.4223 33.6656 54.0448 32.2614 53.995C30.9641 54.0566 29.6969 54.4066 28.5519 55.0193C28.1124 55.2173 27.6639 55.4182 27.2019 55.5907C27.3819 55.7406 27.5649 55.8831 27.7509 56.0271C28.1094 55.8771 28.4574 55.7271 28.8009 55.5772C29.8684 55.0002 31.051 54.6682 32.2629 54.6054C33.5779 54.6568 34.8624 55.0164 36.0129 55.6552C37.2051 56.3096 38.5329 56.6787 39.8919 56.7334C41.3764 56.6847 42.8292 56.2914 44.1354 55.5847C45.1951 54.9969 46.3751 54.6589 47.5854 54.5964C48.8026 54.623 49.9918 54.9667 51.0354 55.5937C51.3894 55.7751 51.7479 55.9521 52.1379 56.1171C52.3194 55.9791 52.5024 55.8336 52.6839 55.6882C52.2138 55.5027 51.7542 55.292 51.3069 55.0568C50.1773 54.3874 48.8937 54.0216 47.5809 53.995" fill="#887369"/>
<path d="M47.5885 55.1216C46.2905 55.1868 45.0242 55.5457 43.885 56.1713C42.656 56.8368 41.2902 57.2103 39.8935 57.2631C38.6228 57.2075 37.3823 56.8579 36.2695 56.2418C35.0373 55.5668 33.6642 55.1893 32.26 55.1396C30.9629 55.2022 29.6959 55.552 28.5505 56.1638C28.4215 56.2208 28.2925 56.2808 28.165 56.3348C28.3555 56.4743 28.546 56.6107 28.738 56.7367C28.7589 56.7317 28.779 56.7241 28.798 56.7142C29.8655 56.1372 31.0482 55.8053 32.26 55.7424C33.5748 55.7951 34.859 56.1546 36.01 56.7922C37.2021 57.4472 38.5299 57.8168 39.889 57.8719C41.3735 57.8219 42.8261 57.4282 44.1325 56.7217C45.1931 56.1363 46.3727 55.7989 47.5825 55.7349C48.7995 55.7606 49.9887 56.1033 51.0325 56.7292L51.166 56.7952C51.358 56.6677 51.544 56.5373 51.733 56.4038L51.3055 56.1908C50.176 55.5214 48.8924 55.1557 47.5795 55.1291" fill="#887369"/>
<path d="M43.8893 57.3079C42.6606 57.9737 41.2946 58.3469 39.8978 58.3981C38.6288 58.3442 37.3897 57.9962 36.2783 57.3814C35.0453 56.7053 33.6712 56.3268 32.2658 56.2761C31.1977 56.3051 30.1475 56.558 29.1833 57.0185C29.3933 57.1564 29.6049 57.2839 29.8209 57.4084C30.593 57.0743 31.4231 56.8949 32.2644 56.8805C33.5792 56.9331 34.8634 57.2926 36.0143 57.9302C37.2074 58.5822 38.5348 58.9501 39.8933 59.0055C41.3778 58.9568 42.8306 58.5635 44.1369 57.8568C45.1973 57.2708 46.3769 56.9329 47.5868 56.8685C48.4712 56.8653 49.3452 57.0584 50.1458 57.4339C50.3558 57.3094 50.5628 57.1864 50.7698 57.0544C49.7874 56.5404 48.6957 56.2698 47.5868 56.2656C46.2893 56.3308 45.0234 56.6897 43.8849 57.3154" fill="#887369"/>
<path d="M40 16C35.2533 16 30.6131 17.4072 26.6663 20.0438C22.7195 22.6803 19.6434 26.4278 17.8269 30.8122C16.0104 35.1966 15.5351 40.0211 16.4612 44.6755C17.3872 49.33 19.673 53.6054 23.0294 56.9611C26.3859 60.3167 30.6623 62.602 35.3178 63.5278C39.9734 64.4537 44.799 63.9785 49.1844 62.1624C53.5698 60.3463 57.3181 57.2709 59.9553 53.325C62.5924 49.3792 64 44.7401 64 39.9944C64 33.6307 61.4714 27.5276 56.9706 23.0278C52.4697 18.528 46.3652 16 40 16ZM40 60.1648C36.0104 60.1651 32.1103 58.9826 28.7929 56.7669C25.4755 54.5512 22.8898 51.4018 21.3627 47.7169C19.8356 44.032 19.4358 39.9771 20.2137 36.065C20.9916 32.1529 22.9124 28.5593 25.7332 25.7386C28.5539 22.9179 32.1479 20.9967 36.0608 20.2181C39.9736 19.4395 44.0295 19.8383 47.7156 21.3643C51.4017 22.8902 54.5524 25.4746 56.7693 28.7907C58.9863 32.1069 60.1699 36.0058 60.1705 39.9944C60.1711 42.643 59.6498 45.2658 58.6364 47.7129C57.623 50.1601 56.1373 52.3837 54.2643 54.2567C52.3912 56.1298 50.1675 57.6156 47.72 58.6293C45.2725 59.643 42.6492 60.1648 40 60.1648Z" fill="#E71618"/>
<path d="M51.3579 34.0489C51.1122 34.7924 50.6467 35.4439 50.0229 35.9174C49.0869 36.6672 42.8799 40.4674 42.1749 41.3417C41.5709 42.2762 41.2847 43.3807 41.3589 44.4909V51.7867H42.3264V49.8957C42.3956 48.9694 42.796 48.0991 43.4544 47.4437C45.423 45.8333 47.4938 44.352 49.6539 43.0093C50.2781 42.5145 50.7647 41.8676 51.067 41.1308C51.3694 40.3939 51.4773 39.5918 51.3804 38.8013V33.8164L51.3579 34.0489Z" fill="#009B3B"/>
<path d="M41.3664 40.8941C42.0519 40.0303 48.4569 36.1237 49.3749 35.3769C49.9295 34.9996 50.3951 34.5058 50.7392 33.93C51.0832 33.3542 51.2975 32.7103 51.3669 32.0432V23.8716C51.244 25.0473 50.7239 26.1459 49.8924 26.9864C48.9519 28.2191 44.6424 30.5495 42.5139 32.0447C41.6515 32.5227 40.9317 33.2214 40.4282 34.0691C39.9248 34.9169 39.6558 35.8832 39.6489 36.8691V51.7951H40.6044V44.0044C40.5109 42.9144 40.7793 41.8239 41.3679 40.9016" fill="#009B3B"/>
<path d="M36.5033 32.4455C34.2749 30.7824 32.1392 28.9987 30.1058 27.1022C29.282 26.2344 28.7565 25.1264 28.6058 23.9395V31.5292C28.6405 32.4023 28.8763 33.2557 29.2949 34.0228C29.7136 34.7899 30.3037 35.45 31.0193 35.9517C32.9123 37.3343 35.5808 39.3439 36.3803 40.1507C37.45 41.329 38.0088 42.8832 37.9343 44.4727V51.7955H38.8793V37.1949C38.9936 36.2574 38.8292 35.3071 38.4067 34.4625C37.9841 33.6178 37.3222 32.9163 36.5033 32.4455Z" fill="#009B3B"/>
</svg>

<svg xmlns="http://www.w3.org/2000/svg" width="80" height="80" fill="none" viewBox="0 0 80 80"><rect width="79" height="79" x=".5" y=".5" fill="#fff" rx="7.5"/><rect width="79" height="79" x=".5" y=".5" stroke="#eee" rx="7.5"/><path fill="#fff" d="M62.295 40.146a22.13 22.13 0 0 1-13.667 20.446 22.14 22.14 0 0 1-24.124-4.799 22.13 22.13 0 0 1 15.653-37.78 22.14 22.14 0 0 1 15.654 6.482 22.13 22.13 0 0 1 6.483 15.65"/><path fill="#887369" d="M51.315 51.602a7.6 7.6 0 0 0-3.726-1.063 8.6 8.6 0 0 0-3.705 1.05 9 9 0 0 1-3.992 1.096 8.2 8.2 0 0 1-3.622-1.024 9.04 9.04 0 0 0-4.01-1.102 8.8 8.8 0 0 0-3.71 1.02 9.2 9.2 0 0 1-4.006 1.08h-.252q.247.308.504.6a10 10 0 0 0 4.002-1.123 8.15 8.15 0 0 1 3.462-.972 8.4 8.4 0 0 1 3.75 1.05 8.85 8.85 0 0 0 3.876 1.078 9.6 9.6 0 0 0 4.247-1.148 8 8 0 0 1 3.45-.99 7 7 0 0 1 3.45.997 8.3 8.3 0 0 0 4.13 1.147q.265-.305.523-.623a7 7 0 0 1-.497.02 7.8 7.8 0 0 1-3.883-1.08"/><path fill="#887369" d="M47.589 51.686a8.6 8.6 0 0 0-3.704 1.05 9.1 9.1 0 0 1-3.991 1.094 8.25 8.25 0 0 1-3.624-1.021 9 9 0 0 0-4.01-1.107 8.8 8.8 0 0 0-3.71 1.026 10.3 10.3 0 0 1-3.3 1.038c.173.183.347.367.526.54 1.046-.204 2.06-.55 3.015-1.026a8.14 8.14 0 0 1 3.461-.972c1.316.051 2.6.41 3.75 1.05a8.8 8.8 0 0 0 3.88 1.075 9.6 9.6 0 0 0 4.243-1.149 8 8 0 0 1 3.45-.988 7 7 0 0 1 3.45.999 9 9 0 0 0 3.11 1.08c.183-.184.367-.37.541-.557a8.1 8.1 0 0 1-3.378-1.063 7.6 7.6 0 0 0-3.726-1.062"/><path fill="#887369" d="M47.589 52.83a8.6 8.6 0 0 0-3.704 1.04 9.05 9.05 0 0 1-3.991 1.097 8.2 8.2 0 0 1-3.624-1.024 9.1 9.1 0 0 0-4.01-1.105 8.8 8.8 0 0 0-3.71 1.025c-.742.362-1.517.654-2.314.87.173.165.353.323.533.486q1.042-.334 2.03-.802a8.14 8.14 0 0 1 3.463-.972c1.315.051 2.6.41 3.75 1.05a8.8 8.8 0 0 0 3.879 1.08 9.6 9.6 0 0 0 4.243-1.15 8 8 0 0 1 3.45-.99 7 7 0 0 1 3.45 1c.665.36 1.365.654 2.088.875l.552-.491a9.4 9.4 0 0 1-2.367-.926 7.6 7.6 0 0 0-3.726-1.061"/><path fill="#887369" d="M47.59 53.977a8.56 8.56 0 0 0-3.704 1.05 9.1 9.1 0 0 1-3.991 1.092 8.2 8.2 0 0 1-3.624-1.022 9 9 0 0 0-4.01-1.102 8.74 8.74 0 0 0-3.71 1.024c-.439.198-.887.4-1.35.572.18.15.364.292.55.436q.535-.225 1.05-.45a8.2 8.2 0 0 1 3.462-.972c1.315.052 2.6.411 3.75 1.05a8.8 8.8 0 0 0 3.879 1.078 9.6 9.6 0 0 0 4.243-1.148 7.96 7.96 0 0 1 3.45-.989 7 7 0 0 1 3.45.998c.354.181.713.358 1.103.523q.272-.209.546-.429a14 14 0 0 1-1.377-.631 7.6 7.6 0 0 0-3.726-1.062"/><path fill="#887369" d="M47.589 55.122a8.6 8.6 0 0 0-3.704 1.05 9.1 9.1 0 0 1-3.991 1.091 8.2 8.2 0 0 1-3.624-1.021 9 9 0 0 0-4.01-1.102 8.8 8.8 0 0 0-3.71 1.024c-.128.057-.258.117-.385.17.19.14.381.277.573.403a.3.3 0 0 0 .06-.023 8.2 8.2 0 0 1 3.462-.972 8.44 8.44 0 0 1 3.75 1.05 8.8 8.8 0 0 0 3.879 1.08 9.6 9.6 0 0 0 4.243-1.15 8 8 0 0 1 3.45-.987 7 7 0 0 1 3.45.994l.134.066c.192-.127.378-.258.567-.391l-.427-.213a7.6 7.6 0 0 0-3.726-1.062"/><path fill="#887369" d="M43.89 57.308a9.1 9.1 0 0 1-3.992 1.09 8.2 8.2 0 0 1-3.62-1.017 9 9 0 0 0-4.012-1.105 7.6 7.6 0 0 0-3.083.742q.314.206.638.39a6.4 6.4 0 0 1 2.443-.528 8.4 8.4 0 0 1 3.75 1.05 8.84 8.84 0 0 0 3.88 1.075 9.6 9.6 0 0 0 4.243-1.148 8 8 0 0 1 3.45-.989 6 6 0 0 1 2.559.566c.21-.125.417-.248.624-.38a6.9 6.9 0 0 0-3.183-.788 8.6 8.6 0 0 0-3.702 1.05"/><path fill="#e71618" d="M40 16a24 24 0 0 0-22.173 14.812 23.99 23.99 0 0 0 5.202 26.15A24.002 24.002 0 0 0 64 39.993a24 24 0 0 0-7.03-16.966A24 24 0 0 0 40 16m0 44.165a20.175 20.175 0 0 1-18.637-12.448 20.16 20.16 0 0 1 4.37-21.978A20.173 20.173 0 0 1 60.17 39.994 20.16 20.16 0 0 1 47.72 58.63 20.2 20.2 0 0 1 40 60.165"/><path fill="#009b3b" d="M51.358 34.049a3.87 3.87 0 0 1-1.335 1.868c-.936.75-7.143 4.55-7.848 5.425a5.17 5.17 0 0 0-.816 3.149v7.296h.967v-1.891a3.87 3.87 0 0 1 1.128-2.452 59 59 0 0 1 6.2-4.435 4.65 4.65 0 0 0 1.726-4.208v-4.985z"/><path fill="#009b3b" d="M41.366 40.894c.686-.864 7.09-4.77 8.009-5.517a4.61 4.61 0 0 0 1.992-3.334v-8.171a5.2 5.2 0 0 1-1.475 3.114c-.94 1.233-5.25 3.563-7.378 5.059a5.56 5.56 0 0 0-2.865 4.824v14.926h.955v-7.79a4.98 4.98 0 0 1 .764-3.103m-4.865-8.456a76 76 0 0 1-6.397-5.344 5.62 5.62 0 0 1-1.5-3.163v7.59a5.68 5.68 0 0 0 2.413 4.423c1.893 1.382 4.562 3.392 5.361 4.199a6 6 0 0 1 1.554 4.322v7.322h.945v-14.6a4.81 4.81 0 0 0-2.376-4.75"/></svg>
